humanity-icon-theme/Humanity-Dark/status/24/audio-output-none-panel.svg

<?xml version="1.0" encoding="UTF-8" standalone="no"?>
<!-- Created with Inkscape (http://www.inkscape.org/) -->
<svg id="svg2" xmlns="http://www.w3.org/2000/svg" height="24" width="24" version="1.0">
 <path id="rect3612" style="color:#000000;fill:#969696" d="m14 6v0.3125l-2.688 2.6875h-2.312-1v7h1 2.312l2.688 2.688v0.312h1v-13h-1zm0 1.6875v9.625l-2.312-2.312h-0.25-2.438v-5h2.375 0.313l2.312-2.3125z"/>
</svg>

<?xml version="1.0" encoding="UTF-8" standalone="no"?>
<!-- Created with Inkscape (http://www.inkscape.org/) -->

<svg
   xmlns:svg="http://www.w3.org/2000/svg"
   xmlns="http://www.w3.org/2000/svg"
   version="1.0"
   width="24"
   height="24"
   id="svg2">
  <defs
     id="defs4" />
  <path
     d="M 14,6 14,6.3125 11.3125,9 9,9 8,9 8,16 9,16 11.3125,16 14,18.6875 14,19 15,19 15,6 14,6 z m 0,1.6875 0,9.625 L 11.6875,15 11.4375,15 9,15 9,10 11.375,10 11.6875,10 14,7.6875 z"
     id="rect3612"
     style="color:#000000;fill:#969696;fill-opacity:1;stroke:none;stroke-width:2;marker:none;visibility:visible;display:inline;overflow:visible;enable-background:accumulate" />
</svg>
